X: 62
T: Ku służbie Twojej, Boże, mój obrońca,
C: Mikołaj Gomółka
%%abc-version 2.0
%%abcx-abcm2ps-target-version 5.9.1 (29 Sep 2008)
%%abc-creator hum2abc beta
%%abcx-conversion-date 2021/10/04 07:59:09
%%abc-edited-by Marta Lawrence
%%abcx-initial-encoding-date 2020-02-10
%%humdrum-veritas 3958755583
%%humdrum-veritas-data 450305153
%%linebreak <none>
%%barnumbers 0
L: 1/4
M: C|
N: Derived from pl-wn--sd-xvi-qu-273--063_gomolka-mikolaj--ku-sluzbie-twojej-boze-moj-obronca.krn
%%staves [1 2 3 4]
V: 1
V: 2 clef=alto
V: 3 clef=alto
V: 4 clef=bass
K: F
[V:1] F4F2FG [|] 
[V:2] C4D2DE [|] 
[V:3] A,4B,2B,2 [|] 
[V:4] F,4B,,2B,,2 [|] 
[V:1] A2c2d3c [|] 
[V:2] F2>E2DCDE [|] 
[V:3] C2C2F3E [|] 
[V:4] F,,2F,2B,,3C, [|] 
[V:1] B2F2GA2G [|] 
[V:2] F2>D2EF2E [|] 
[V:3] DCB,A,G,F,G,2 [|] 
[V:4] D,E,F,2C,4 [|] 
[V:1] A2A2B2zG [|] 
[V:2] F2F2F2z_E [|] 
[V:3] F,2C2D2zB, [|] 
[V:4] F,,2F,2B,,2zE, [|] 
[V:1] c2A2B3A [|] 
[V:2] G2F=E2<D2C [|] 
[V:3] E2DCB,A,B,C [|] 
[V:4] C,2D,2G,,3A,, [|] 
[V:1] G2F2F2E2 [|] 
[V:2] B,2C2D2CB, [|] 
[V:3] D2C2B,2A,G, [|] 
[V:4] B,,2A,,2B,,2C,2 [|] 
[V:1] F2F2B2B2 [|] 
[V:2] C2D2D2D2 [|] 
[V:3] A,2B,2B,3A, [|] 
[V:4] F,,2B,,2G,,2G,,3 [|] 
[V:1] B4A2F2 [|] 
[V:2] D4D2D2 [|] 
[V:3] G,2G,2F,2B,3 [|] 
[V:4] A,,B,,C,D,2D,2 [|] 
[V:1] B2B2A2G4 [|] 
[V:2] F2F2E2E2 [|] 
[V:3] CD2C3B, [|] 
[V:4] B,,2B,,2C,2C,2 [|] 
[V:1] F2G2E2 [|] 
[V:2] D2>C2B,2C2 [|] 
[V:3] A,G,A,2G,2G,4 [|] 
[V:4] D,4G,,2C,2 [|] 
[V:1] E2G2F4 [|] 
[V:2] C2C2F,4 [|] 
[V:3] G,2A,2B,2 [|] 
[V:4] C,2E,2D,4 [|] 
[V:1] E2A4GF [|] 
[V:2] G,2A,2A,2B,2 [|] 
[V:3] C2>B,2A,G,F,2 [|] 
[V:4] C,2A,,2D,4 [|] 
[V:1] EDEFG2F4 [|] 
[V:2] C4D2B,2 [|] 
[V:3] G,F,G,A,B,A,G,F, [|] 
[V:4] C,4B,,2D,2 [|] 
[V:1] E2F32 |]  
[V:2] C2>B,2A,32 |]  
[V:3] G,4F,32 |]  
[V:4] C,4F,,32 |]  


